public/icons/pin.svg

<svg width="16" height="18" viewBox="0 0 16 18" fill="none" xmlns="http://www.w3.org/2000/svg">
<path d="M3.94996 0.899902H12.05V2.5199H3.94996V0.899902ZM2.32996 4.1399V2.5199H3.94996V4.1399H2.32996ZM2.32996 10.6199H0.709961V4.1399H2.32996V10.6199ZM3.94996 12.2399H2.32996V10.6199H3.94996V12.2399ZM5.56996 13.8599H3.94996V12.2399H5.56996V13.8599ZM7.18996 15.4799H5.56996V13.8599H7.18996V15.4799ZM8.80996 15.4799V17.0999H7.18996V15.4799H8.80996ZM10.43 13.8599V15.4799H8.80996V13.8599H10.43ZM12.05 12.2399V13.8599H10.43V12.2399H12.05ZM13.67 10.6199V12.2399H12.05V10.6199H13.67ZM13.67 4.1399H15.29V10.6199H13.67V4.1399ZM13.67 4.1399V2.5199H12.05V4.1399H13.67ZM9.61996 5.7599H6.37996V8.9999H9.61996V5.7599Z" fill="#BDBDBD"/>
</svg>

<svg xmlns="http://www.w3.org/2000/svg" width="16" height="18" fill="none" viewBox="0 0 16 18"><path fill="#bdbdbd" d="M3.95.9h8.1v1.62h-8.1zM2.33 4.14V2.52h1.62v1.62zm0 6.48H.71V4.14h1.62zm1.62 1.62H2.33v-1.62h1.62zm1.62 1.62H3.95v-1.62h1.62zm1.62 1.62H5.57v-1.62h1.62zm1.62 0v1.62H7.19v-1.62zm1.62-1.62v1.62H8.81v-1.62zm1.62-1.62v1.62h-1.62v-1.62zm1.62-1.62v1.62h-1.62v-1.62zm0-6.48h1.62v6.48h-1.62zm0 0V2.52h-1.62v1.62zM9.62 5.76H6.38V9h3.24z"/></svg>
